icons/svg/text-clear-formatting.svg

<svg width="24" height="24" viewBox="0 0 24 24" fill="none" xmlns="http://www.w3.org/2000/svg">
<path d="M14.7709 22.2519H21.2461M11.5561 14.5187L17.4814 20.444M11.2864 19.6357L12.3643 20.7136C13.2127 21.562 13.6369 21.9862 14.126 22.1451C14.5563 22.2849 15.0197 22.2849 15.45 22.1451C15.9391 21.9862 16.3633 21.562 17.2117 20.7136L20.7136 17.2117C21.562 16.3633 21.9862 15.9391 22.1451 15.45C22.285 15.0197 22.285 14.5563 22.1451 14.126C21.9862 13.6369 21.562 13.2127 20.7136 12.3643L19.6357 11.2864C18.7873 10.438 18.3631 10.0138 17.874 9.85485C17.4437 9.71505 16.9803 9.71505 16.55 9.85485C16.0609 10.0138 15.6367 10.438 14.7883 11.2864L11.2864 14.7883C10.438 15.6367 10.0138 16.0609 9.85485 16.55C9.71505 16.9803 9.71505 17.4437 9.85485 17.874C10.0138 18.3631 10.438 18.7873 11.2864 19.6357Z" stroke="currentColor" stroke-width="1.5" stroke-linecap="round" stroke-linejoin="round"/>
<path d="M2.75 12.4268L4.32774 8.7213M4.32774 8.7213H10.0076M4.32774 8.7213L6.74526 3.04348C6.91188 2.65217 7.42345 2.65217 7.59006 3.04348L10.0076 8.7213M10.0076 8.7213L11.1454 11.3937M14.09 2.75V8.489L14.2018 8.39276C14.5708 7.03694 15.8107 6.04002 17.2834 6.04002C18.8127 6.04002 20.0909 7.11505 20.4036 8.55065" stroke="currentColor" stroke-width="1.5" stroke-linecap="round" stroke-linejoin="round"/>
</svg>

<svg xmlns="http://www.w3.org/2000/svg" width="24" height="24" fill="none" viewBox="0 0 24 24"><path stroke="currentColor" stroke-linecap="round" stroke-linejoin="round" stroke-width="1.5" d="M14.77 22.252h6.476m-9.69-7.733 5.925 5.925m-6.195-.808 1.078 1.078c.849.848 1.273 1.272 1.762 1.431.43.14.894.14 1.324 0 .49-.159.913-.583 1.762-1.431l3.502-3.502c.848-.849 1.272-1.273 1.431-1.762.14-.43.14-.894 0-1.324-.159-.49-.583-.913-1.431-1.762l-1.078-1.078c-.849-.848-1.273-1.272-1.762-1.431a2.14 2.14 0 0 0-1.324 0c-.49.159-.913.583-1.762 1.431l-3.502 3.502c-.848.849-1.272 1.273-1.431 1.762-.14.43-.14.894 0 1.324.159.49.583.913 1.431 1.762M2.75 12.427 4.328 8.72m0 0h5.68m-5.68 0 2.417-5.678a.45.45 0 0 1 .845 0l2.418 5.678m0 0 1.137 2.673M14.09 2.75v5.739l.112-.096a3.195 3.195 0 0 1 6.202.158"/></svg>
